src/next/cmd/32/sectionalignbottom.svg

<svg height="32" width="32" xmlns="http://www.w3.org/2000/svg" xmlns:xlink="http://www.w3.org/1999/xlink"><linearGradient id="a"><stop offset="0" stop-color="#fff"/><stop offset="1" stop-color="#fff" stop-opacity="0"/></linearGradient><linearGradient id="b"><stop offset="0" stop-color="#fff"/><stop offset=".42597079" stop-color="#fff"/><stop offset=".5892781" stop-color="#f1f1f1"/><stop offset=".80219781" stop-color="#eaeaea"/><stop offset="1" stop-color="#dfdfdf"/></linearGradient><linearGradient id="c"><stop offset="0" stop-color="#b4b4b6"/><stop offset=".5" stop-color="#9c9ca1"/><stop offset="1" stop-color="#cdcdd1"/></linearGradient><linearGradient id="d" gradientTransform="matrix(1 0 0 .4444445 -4 -116.44444)" gradientUnits="userSpaceOnUse" x1="108" x2="38.3461" xlink:href="#b" y1="99.999977" y2="58.006641"/><linearGradient id="e" gradientTransform="matrix(.1133599 0 0 .07807154 -3.3572 -154.90212)" gradientUnits="userSpaceOnUse" x1="399.77466" x2="399.77466" xlink:href="#c" y1="1164.6696" y2="549.06134"/><linearGradient id="f"><stop offset="0" stop-color="#0968ef"/><stop offset="1" stop-color="#aecffc"/></linearGradient><linearGradient id="g" gradientTransform="matrix(.08097132 0 0 .07807154 6.74486 -106.90212)" gradientUnits="userSpaceOnUse" x1="399.77466" x2="399.77466" xlink:href="#c" y1="1164.6696" y2="549.06134"/><linearGradient id="h" gradientTransform="matrix(.6666667 0 0 .4444445 9.33333 -68.444443)" gradientUnits="userSpaceOnUse" x1="114.99999" x2="34.000004" xlink:href="#b" y1="85.937477" y2="36.999992"/><linearGradient id="i" gradientTransform="matrix(0 -.7587007 -.75000004 0 68 109.79206)" gradientUnits="userSpaceOnUse" x1="77.5625" x2="108.625" xlink:href="#a" y1="32" y2="32"/><linearGradient id="j" gradientTransform="matrix(0 -.75 -.75 0 108 116.04687)" gradientUnits="userSpaceOnUse" x1="77.5625" x2="108.625" xlink:href="#a" y1="32" y2="32"/><linearGradient id="k" gradientTransform="matrix(1.9362358 0 0 1.1370159 80.510114 -137.09613)" gradientUnits="userSpaceOnUse" x1="16.263456" x2="28.913122" xlink:href="#f" y1="67.869316" y2="-12.523698"/><linearGradient id="l" gradientTransform="matrix(-.00024526 .49999994 .49999994 .00024526 47.997577 -32.01933)" gradientUnits="userSpaceOnUse" x1="113.15723" x2="39.268185" xlink:href="#f" y1="25.786163" y2="25.786163"/><g transform="scale(.25)"><g transform="translate(-40)"><rect fill="url(#e)" height="32" rx="2.857143" ry="2.769231" transform="rotate(90)" width="72" x="28" y="-100"/><g fill-rule="evenodd"><rect fill="url(#d)" height="24" rx="1.5" ry="1.444445" transform="rotate(90)" width="64" x="32" y="-96"/><path d="m96 47.42187c-7.071062 8.01268-14.719212 15.52382-24 20.20313v-20.41407c8.885235-1.14335 16.911866-4.71258 24-9.63281z" fill="url(#j)"/></g></g><g transform="translate(40 12.255438)"><rect fill="url(#g)" height="32" rx="2.857143" ry="2.769231" transform="rotate(90)" width="60.000031" x="28" y="-60"/><g fill-rule="evenodd"><rect fill="url(#h)" height="24" rx="1.5" ry="1.444445" transform="rotate(90)" width="52" x="32" y="-56"/><path d="m56 47.957947c-7.071061 8.105629-14.719215 15.703907-24 20.4375v-20.650885c8.885235-1.156616 16.911863-4.767253 24-9.744562z" fill="url(#i)"/></g></g><rect fill="url(#k)" height="104" rx="3.75" ry="4" transform="rotate(90)" width="8" x="104" y="-116"/><path d="m61.968135 27.98753-9.994105-12.00491 1.988398-1.98644 6.010672 3.90232.0269-17.8985 3.999985.002-.0269 17.8985 5.91387-3.89651 2.08707 1.98844z" fill="url(#l)" fill-rule="evenodd"/></g></svg>

<?xml version="1.0" encoding="UTF-8" standalone="no"?>
<svg
   xmlns:dc="http://purl.org/dc/elements/1.1/"
   xmlns:cc="http://creativecommons.org/ns#"
   xmlns:rdf="http://www.w3.org/1999/02/22-rdf-syntax-ns#"
   xmlns:svg="http://www.w3.org/2000/svg"
   xmlns="http://www.w3.org/2000/svg"
   xmlns:xlink="http://www.w3.org/1999/xlink"
   xmlns:sodipodi="http://sodipodi.sourceforge.net/DTD/sodipodi-0.dtd"
   xmlns:inkscape="http://www.inkscape.org/namespaces/inkscape"
   height="32"
   width="32"
   version="1.1"
   id="svg62"
   sodipodi:docname="sectionalignbottom.svg"
   inkscape:version="0.92.4 (unknown)"
   inkscape:export-filename="/home/rizmut/Dokumen/Rizmut/Github/libreoffice-style-karasa-jaga/build/next/cmd/32/sectionalignbottom.png"
   inkscape:export-xdpi="96"
   inkscape:export-ydpi="96">
  <metadata
     id="metadata68">
    <rdf:RDF>
      <cc:Work
         rdf:about="">
        <dc:format>image/svg+xml</dc:format>
        <dc:type
           rdf:resource="http://purl.org/dc/dcmitype/StillImage" />
        <dc:title></dc:title>
      </cc:Work>
    </rdf:RDF>
  </metadata>
  <defs
     id="defs66" />
  <sodipodi:namedview
     pagecolor="#ffffff"
     bordercolor="#666666"
     borderopacity="1"
     objecttolerance="10"
     gridtolerance="10"
     guidetolerance="10"
     inkscape:pageopacity="0"
     inkscape:pageshadow="2"
     inkscape:window-width="1366"
     inkscape:window-height="714"
     id="namedview64"
     showgrid="true"
     inkscape:zoom="5.2149125"
     inkscape:cx="15.463673"
     inkscape:cy="35.177147"
     inkscape:window-x="0"
     inkscape:window-y="28"
     inkscape:window-maximized="1"
     inkscape:current-layer="g892">
    <inkscape:grid
       type="xygrid"
       id="grid875" />
  </sodipodi:namedview>
  <linearGradient
     id="a">
    <stop
       offset="0"
       stop-color="#fff"
       id="stop2" />
    <stop
       offset="1"
       stop-color="#fff"
       stop-opacity="0"
       id="stop4" />
  </linearGradient>
  <linearGradient
     id="b">
    <stop
       offset="0"
       stop-color="#fff"
       id="stop7" />
    <stop
       offset=".42597079"
       stop-color="#fff"
       id="stop9" />
    <stop
       offset=".5892781"
       stop-color="#f1f1f1"
       id="stop11" />
    <stop
       offset=".80219781"
       stop-color="#eaeaea"
       id="stop13" />
    <stop
       offset="1"
       stop-color="#dfdfdf"
       id="stop15" />
  </linearGradient>
  <linearGradient
     id="c">
    <stop
       offset="0"
       stop-color="#b4b4b6"
       id="stop18" />
    <stop
       offset=".5"
       stop-color="#9c9ca1"
       id="stop20" />
    <stop
       offset="1"
       stop-color="#cdcdd1"
       id="stop22" />
  </linearGradient>
  <linearGradient
     id="d"
     gradientTransform="matrix(1,0,0,0.4444445,-4,-116.44444)"
     gradientUnits="userSpaceOnUse"
     x1="108"
     x2="38.3461"
     xlink:href="#b"
     y1="99.999977"
     y2="58.006641" />
  <linearGradient
     id="e"
     gradientTransform="matrix(0.1133599,0,0,0.07807154,-3.3572,-154.90212)"
     gradientUnits="userSpaceOnUse"
     x1="399.77466"
     x2="399.77466"
     xlink:href="#c"
     y1="1164.6696"
     y2="549.06134" />
  <linearGradient
     id="f">
    <stop
       offset="0"
       stop-color="#0968ef"
       id="stop27" />
    <stop
       offset="1"
       stop-color="#aecffc"
       id="stop29" />
  </linearGradient>
  <linearGradient
     id="g"
     gradientTransform="matrix(0.08097132,0,0,0.07807154,6.74486,-106.90212)"
     gradientUnits="userSpaceOnUse"
     x1="399.77466"
     x2="399.77466"
     xlink:href="#c"
     y1="1164.6696"
     y2="549.06134" />
  <linearGradient
     id="h"
     gradientTransform="matrix(0.6666667,0,0,0.4444445,9.33333,-68.444443)"
     gradientUnits="userSpaceOnUse"
     x1="114.99999"
     x2="34.000004"
     xlink:href="#b"
     y1="85.937477"
     y2="36.999992" />
  <linearGradient
     id="i"
     gradientTransform="matrix(0,-0.7587007,-0.75000004,0,68,109.79206)"
     gradientUnits="userSpaceOnUse"
     x1="77.5625"
     x2="108.625"
     xlink:href="#a"
     y1="32"
     y2="32" />
  <linearGradient
     id="j"
     gradientTransform="matrix(0,-0.75,-0.75,0,108,116.04687)"
     gradientUnits="userSpaceOnUse"
     x1="77.5625"
     x2="108.625"
     xlink:href="#a"
     y1="32"
     y2="32" />
  <linearGradient
     id="k"
     gradientTransform="matrix(1.9362358,0,0,1.1370159,80.510114,-137.09613)"
     gradientUnits="userSpaceOnUse"
     x1="16.263456"
     x2="28.913122"
     xlink:href="#f"
     y1="67.869316"
     y2="-12.523698" />
  <linearGradient
     id="l"
     gradientTransform="matrix(-2.4526e-4,0.49999994,0.49999994,2.4526e-4,47.997577,-32.01933)"
     gradientUnits="userSpaceOnUse"
     x1="113.15723"
     x2="39.268185"
     xlink:href="#f"
     y1="25.786163"
     y2="25.786163" />
  <g
     id="g892"
     transform="scale(0.25)">
    <g
       id="g46"
       transform="translate(-40)">
      <rect
         id="rect38"
         y="-100"
         x="28"
         width="72"
         transform="rotate(90)"
         ry="2.7692311"
         rx="2.8571429"
         height="32"
         style="fill:url(#e)" />
      <g
         id="g44"
         style="fill-rule:evenodd">
        <rect
           id="rect40"
           y="-96"
           x="32"
           width="64"
           transform="rotate(90)"
           ry="1.444445"
           rx="1.5"
           height="24"
           style="fill:url(#d)" />
        <path
           id="path42"
           d="M 96,47.42187 C 88.928938,55.43455 81.280788,62.94569 72,67.625 V 47.21093 c 8.885235,-1.14335 16.911866,-4.71258 24,-9.63281 z"
           style="fill:url(#j)"
           inkscape:connector-curvature="0" />
      </g>
    </g>
    <g
       id="g56"
       transform="translate(40,12.255438)">
      <rect
         id="rect48"
         y="-60"
         x="28"
         width="60.000031"
         transform="rotate(90)"
         ry="2.7692311"
         rx="2.8571429"
         height="32"
         style="fill:url(#g)" />
      <g
         id="g54"
         style="fill-rule:evenodd">
        <rect
           id="rect50"
           y="-56"
           x="32"
           width="52"
           transform="rotate(90)"
           ry="1.444445"
           rx="1.5"
           height="24"
           style="fill:url(#h)" />
        <path
           id="path52"
           d="m 56,47.957947 c -7.071061,8.105629 -14.719215,15.703907 -24,20.4375 V 47.744562 C 40.885235,46.587946 48.911863,42.977309 56,38 Z"
           style="fill:url(#i)"
           inkscape:connector-curvature="0" />
      </g>
    </g>
    <rect
       id="rect58"
       y="-116"
       x="104"
       width="8"
       transform="rotate(90)"
       ry="4"
       rx="3.75"
       height="104"
       style="fill:url(#k)" />
    <path
       id="path60"
       d="M 61.968135,27.98753 51.97403,15.98262 53.962428,13.99618 59.9731,17.8985 60,0 l 3.999985,0.002 -0.0269,17.8985 5.91387,-3.89651 2.08707,1.98844 z"
       style="fill:url(#l);fill-rule:evenodd"
       inkscape:connector-curvature="0" />
  </g>
</svg>
